X:23
T:Fairy Prince, The
M:9/8
L:1/8
B:WM Cahusac - Annual Collection of Twenty Four Favorite Country Dances for 1809, No. 23 (London)
N:"With proper Directions to each Dance as they are performed at
N:Court, Bath, and all Public Assemblies."
Z:Transcribed and edited by Flynn Titford-Mock, 2007
Z:abc's:AK/Fiddler's Companion
K:Bb
B3 dcB fed|cde GcB AGF|B3 dcB fed|ced cBA B2z:|
|:f2 (=e/f/) f2 (=e/f/) dcB|f2 (=e/f/) fef dcB|f2 (=e/f/) f2 (=e/f/) cBA|GBA GF=E F2z:|
|:b2B b2B b2B|gfe dcB AGF|bbb bbb ba|fed cBA B2z:||

